ePapirus/22x22/panel/battery-empty.svg

<?xml version="1.0"?>
<svg xmlns="http://www.w3.org/2000/svg" height="22" width="22" version="1.1" id="svg2">
 <defs id="defs10">
  <style type="text/css" id="current-color-scheme">
   .ColorScheme-Text { color:#6e6e6e; } .ColorScheme-Highlight { color:#5294e2; } .ColorScheme-ButtonBackground { color:#ffffff; }
  </style>
 </defs>
 <path opacity=".35" style="fill:currentColor" class="ColorScheme-ButtonBackground" d="m9 4v1h-2-1v1 11c0.00002 1 1 1 1 1h7v-10h2v-2-1h-3v-1h-4z" id="path4"/>
 <path style="fill:currentColor" class="ColorScheme-Highlight" d="m15 9v5l0.25 2h1.5l0.25-2v-5zm0 8v2h2v-2z" id="path6"/>
</svg>

<svg xmlns="http://www.w3.org/2000/svg" width="22" height="22" version="1.1">
 <defs>
  <style id="current-color-scheme" type="text/css">
   .ColorScheme-Text { color:#6e6e6e; } .ColorScheme-Highlight { color:#5294e2; } .ColorScheme-ButtonBackground { color:#ffffff; }
  </style>
 </defs>
 <path style="opacity:0.35;fill:currentColor" class="ColorScheme-Highlight" d="M 9 4 L 9 5 L 6 5 L 6 17 C 6 17.55 6.446 18 7 18 L 14 18 L 14 8 L 16 8 L 16 5 L 13 5 L 13 4 L 9 4 z"/>
 <path style="fill:currentColor" d="M 15,9 V 14 L 15.25,16 H 16.75 L 17,14 V 9 Z M 15,17 V 19 H 17 V 17 Z" class="ColorScheme-Highlight"/>
</svg>
